packages/icons/svgs/solid/Source=dashboard.svg

<svg xmlns="http://www.w3.org/2000/svg" width="12" height="12" viewBox="0 0 12 12"><g clip-path="url(#a)"><path d="M6 0C2.7 0 0 2.7 0 6s2.7 6 6 6 6-2.7 6-6-2.7-6-6-6ZM3 6.75H1.5v-1.5H3v1.5Zm3.75 3.75h-1.5V9h1.5v1.5ZM6 7.5c-.825 0-1.5-.675-1.5-1.5 0-.3.075-.6.225-.825L3.525 2.7l1.35-.675 1.2 2.475c.75.075 1.425.675 1.425 1.5S6.825 7.5 6 7.5Zm4.5-.75H9v-1.5h1.5v1.5Z"/></g><defs><clipPath id="a"><path fill="#fff" d="M0 0h12v12H0z"/></clipPath></defs></svg>

<svg width="12" height="12" viewBox="0 0 12 12" fill="none" xmlns="http://www.w3.org/2000/svg">
<g clip-path="url(#clip0_830_734)">
<path d="M6 0C2.7 0 0 2.7 0 6C0 9.3 2.7 12 6 12C9.3 12 12 9.3 12 6C12 2.7 9.3 0 6 0ZM3 6.75H1.5V5.25H3V6.75ZM6.75 10.5H5.25V9H6.75V10.5ZM6 7.5C5.175 7.5 4.5 6.825 4.5 6C4.5 5.7 4.575 5.4 4.725 5.175L3.525 2.7L4.875 2.025L6.075 4.5C6.825 4.575 7.5 5.175 7.5 6C7.5 6.825 6.825 7.5 6 7.5ZM10.5 6.75H9V5.25H10.5V6.75Z" fill="black"/>
</g>
<defs>
<clipPath id="clip0_830_734">
<rect width="12" height="12" fill="white"/>
</clipPath>
</defs>
</svg>
